X: 4515
T: Book Of Rights, The
R: jig
M: 6/8
K: Dmajor
DED D2F|Add AFA|Bcd AGF|EDE FDB,|
DED D2F|Add AFA|Bcd AGF|EDD D3:|
dfa a2a|aba afd|gbg faf|ede fdB|
dfa agf|ede fdA|Bcd AGF|EDD D3:|

